X:1
T:Title
%%score ( 1 2 ) { 3 | 4 }
L:1/8
Q:1/4=113
M:4/4
K:G
V:1 treble nm="Grand Piano, Unnamed-000"
V:2 treble 
V:3 bass nm="Choir Pad, Hymn to Joy, 87.87 D"
V:4 bass 
V:1
 [DB]2 [DB]2 [Dc]2 [Dd]2 | z2 c2 z4 | [DG]2 [DG]2 [FA]2 [GB]2 | [GB]3 [FA] [FA]4 | %4
w: By~Ludwig~van~Beethoven,~1824 * * *||||
 [GB]2 [DB]2 [Ec]2 [=Fd]2 | [=Fd]2 [Ec]2 [DB]2 [EA]2 | [DG]2 [DG]2 [FA]2 [GB]2 | [FA]3 G G4 | %8
w: ||||
 [FA]2 [DA]2 [DB]2 G2 | [FA]2 [GB][Fc] [GB]2 G2 | z2 .B2 z4 | G2 z2 z4 | [DB]2 [DB]2 [Ec]2 [=Fd]2 | %13
w: |||||
 [=Fd]2 [Ec]2 [DB]2 [EA]2 | [DG]2 [DG]2 [FA]2 [GB]2 | [FA]3 G G4- | G4 z4 |] %17
w: ||||
V:2
 x8 | [Dd]2 EF [GB]2 [DA]2 | x8 | x8 | x8 | x8 | x8 | x8 | x8 | x8 | [FA]2 F-[Fc] [FB]2 [^DA]2 | %11
 ED [^CA]2 D4 | x8 | x8 | x8 | x8 | x8 |] %17
V:3
 G,2 G,2 A,2 B,2 | B,2 A,2 G,2 F,2 | G,2 B,2[K:treble] C2 D2 | D3 D D4 | D2 D2 C2[K:bass] B,2 | %5
 G,2 A,2 B,2 C2 | B,2 B,2[K:treble] C2 D2 | C3 B, B,4 | D2[K:bass] F,2 G,2 B,2 | C2 B,A, G,2 B,2 | %10
 C2 B,A, B,2 B,2 | B,2 A,G, F,4 | G,2 D2 C2 B,2 | G,2 A,2 B,2 C2 | B,2 B,2[K:treble] C2 D2 | %15
 C3 B, B,4- | B,4 z4 |] %17
V:4
 z4 G,2 G,2 | D,2 D,2 D,2 C,2 | B,,2 B,,2 A,,2 G,,2 | D,3 D, D,4 | G,2 G,2 G,2 G,2 | %5
 C,2 C,2 C,2 C,2 | D,2 D,2 D,2 D,2 | D,3 G, G,4 | D,2 D,2 D,2 D,2 | D,2 D,2 D,2 D,2 | %10
 D,2 D,2 ^D,2 B,,2 | E,2 A,,2 D,4 | z2 G,2 G,2 G,2 | C,2 C,2 C,2 C,2 | D,2 D,2 D,2 D,2 | %15
 D,3 G, G,4- | G,4 z4 |] %17

